assets/images/twitter_share.svg

<svg fill="none" height="40" viewBox="0 0 40 40" width="40" xmlns="http://www.w3.org/2000/svg"><path clip-rule="evenodd" d="m40 20c0 11.0465-8.9535 20-20 20-11.04651 0-20-8.9535-20-20 0-11.04651 8.95349-20 20-20 11.0465 0 20 8.95349 20 20z" fill="#f9f9fa" fill-rule="evenodd"/><path d="m32 13.1268c-.8506.3655-1.7586.6092-2.7126.72.977-.565 1.7241-1.4511 2.0689-2.5145-.908.5206-1.9195.8972-3 1.1077-.862-.8862-2.0804-1.44-3.4368-1.44-2.6092 0-4.7126 2.0382-4.7126 4.5415 0 .3545.046.6979.1264 1.0413-3.9195-.1883-7.3908-1.9939-9.7241-4.752-.4023.6757-.64368 1.451-.64368 2.2818 0 1.5729.82758 2.9686 2.10348 3.7883-.7701-.0221-1.5058-.2326-2.13797-.5649v.0554c0 2.2043 1.62067 4.0431 3.78157 4.4529-.3908.0997-.816.1551-1.2413.1551-.2989 0-.5977-.0332-.8851-.0776.5977 1.8056 2.3448 3.1237 4.4023 3.157-1.6092 1.2184-3.6437 1.9495-5.8621 1.9495-.37927 0-.75858-.0221-1.1264-.0665 2.1034 1.285 4.5747 2.0382 7.2414 2.0382 8.6781 0 13.4138-6.9231 13.4138-12.9268 0-.1994 0-.3877-.0115-.587.9195-.6425 1.7241-1.4511 2.3563-2.3594z" fill="#000"/></svg>

<svg width="40" height="40" viewBox="0 0 40 40" fill="none" xmlns="http://www.w3.org/2000/svg"><path fill-rule="evenodd" clip-rule="evenodd" d="M40 20C40 31.0465 31.0465 40 20 40C8.95349 40 0 31.0465 0 20C0 8.95349 8.95349 0 20 0C31.0465 0 40 8.95349 40 20Z" fill="#F9F9FA"/><path d="M32 13.1268C31.1494 13.4923 30.2414 13.736 29.2874 13.8468C30.2644 13.2818 31.0115 12.3957 31.3563 11.3323C30.4483 11.8529 29.4368 12.2295 28.3563 12.44C27.4943 11.5538 26.2759 11 24.9195 11C22.3103 11 20.2069 13.0382 20.2069 15.5415C20.2069 15.896 20.2529 16.2394 20.3333 16.5828C16.4138 16.3945 12.9425 14.5889 10.6092 11.8308C10.2069 12.5065 9.96552 13.2818 9.96552 14.1126C9.96552 15.6855 10.7931 17.0812 12.069 17.9009C11.2989 17.8788 10.5632 17.6683 9.93103 17.336C9.93103 17.3582 9.93103 17.3692 9.93103 17.3914C9.93103 19.5957 11.5517 21.4345 13.7126 21.8443C13.3218 21.944 12.8966 21.9994 12.4713 21.9994C12.1724 21.9994 11.8736 21.9662 11.5862 21.9218C12.1839 23.7274 13.931 25.0455 15.9885 25.0788C14.3793 26.2972 12.3448 27.0283 10.1264 27.0283C9.74713 27.0283 9.36782 27.0062 9 26.9618C11.1034 28.2468 13.5747 29 16.2414 29C24.9195 29 29.6552 22.0769 29.6552 16.0732C29.6552 15.8738 29.6552 15.6855 29.6437 15.4862C30.5632 14.8437 31.3678 14.0351 32 13.1268Z" fill="#000"/></svg>
